; generated by PrusaSlicer 2.5.0+win64 on 2022-11-28 at 02:18:46 UTC


;
;
; 

; external perimeters extrusion width = 0.60mm
; perimeters extrusion width = 0.50mm
; infill extrusion width = 0.50mm
; solid infill extrusion width = 0.50mm
; top infill extrusion width = 0.45mm
; first layer extrusion width = 0.42mm

M73 P0 R209
M73 Q0 S210
M201 X1000 Y1000 Z200 E5000 ; sets maximum accelerations, mm/sec^2
M203 X200 Y200 Z12 E120 ; sets maximum feedrates, mm / sec
M204 P1250 R1250 T1250 ; sets acceleration (P, T) and retract acceleration (R), mm/sec^2
M205 X8.00 Y8.00 Z0.40 E4.50 ; sets the jerk limits, mm/sec
M205 S0 T0 ; sets the minimum extruding and travel feed rate, mm/sec
M107
;TYPE:Custom
M862.3 P "MK3S" ; printer model check
M862.1 P0.4 ; nozzle diameter check
M115 U3.11.0 ; tell printer latest fw version
G90 ; use absolute coordinates
M83 ; extruder relative mode
M104 S230 ; set extruder temp
M140 S85 ; set bed temp
M190 S85 ; wait for bed temp
M109 S230 ; wait for extruder temp
G28 W ; home all without mesh bed level
G80 ; mesh bed leveling
G1 Z0.2 F720
G1 Y-3 F1000 ; go outside print area
G92 E0
G1 X60 E9 F1000 ; intro line
G1 X100 E12.5 F1000 ; intro line
G92 E0
M221 S95

; Don't change E values below. Excessive value can damage the printer.

M907 E538 ; set extruder motor current
G21 ; set units to millimeters
G90 ; use absolute coordinates
M83 ; use relative distances for extrusion
M900 K0.08 ; Filament gcode LA 1.5
M900 K45 ; Filament gcode LA 1.0
M107
;LAYER_CHANGE
;Z:0.2
;HEIGHT:0.2
;BEFORE_LAYER_CHANGE
G92 E0.0
;0.2


G1 E-1 F2100
G1 Z.2 F720
;AFTER_LAYER_CHANGE
;0.2
G1 Z.4
G1 X55.185 Y23.042 F10800
M73 Q0 S209
G1 Z.2 F720
G1 E1 F2100
M204 S800
;TYPE:Skirt/Brim
;WIDTH:0.42
G1 F1200
G1 X55.799 Y21.698 E.04633
G1 X56.324 Y20.956 E.02851
G1 X57.206 Y20.074 E.0391
G1 X58.449 Y19.275 E.04633
G1 X59.618 Y18.839 E.03911
G1 X60.511 Y18.67 E.02851
G1 X61.25 Y18.623 E.02321
G1 X188.92 Y18.629 E4.00299
G1 X190.382 Y18.839 E.04633
G1 X191.242 Y19.134 E.02851
G1 X192.337 Y19.732 E.03911
G1 X193.454 Y20.7 E.04633
G1 X194.201 Y21.698 E.03911
G1 X194.616 Y22.508 E.02851
G1 X195.032 Y23.925 E.04633
G1 X195.127 Y25 E.03382
G1 X195.127 Y185 E5.01669
G1 X195.032 Y186.075 E.03382
G1 X194.815 Y186.958 E.02851
G1 X194.475 Y187.801 E.02851
G1 X193.676 Y189.044 E.04633
G1 X192.794 Y189.926 E.0391
G1 X191.551 Y190.725 E.04633
G1 X190.382 Y191.161 E.03911
G1 X189.489 Y191.33 E.02851
G1 X188.75 Y191.377 E.02321
G1 X61.25 Y191.377 E3.99767
G1 X60.175 Y191.282 E.03382
M73 P0 R208
G1 X59.292 Y191.065 E.02851
G1 X57.948 Y190.451 E.04633
G1 X57.206 Y189.926 E.02851
G1 X56.324 Y189.044 E.03911
G1 X55.525 Y187.801 E.04633
G1 X55.089 Y186.632 E.03911
G1 X54.92 Y185.739 E.02851
G1 X54.873 Y185 E.02321
G1 X54.873 Y25 E5.01669
G1 X54.968 Y23.925 E.03382
G1 X55.17 Y23.101 E.02663
M204 S1000
; printing object Lid.stl id:0 copy 0
;WIPE_START
G1 F8640
G1 X55.799 Y21.698 E-.35484
G1 X56.324 Y20.956 E-.20998
G1 X57.206 Y20.074 E-.28798
G1 X57.56 Y19.847 E-.0972
;WIPE_END
G1 E-.05 F2100
G1 Z.4 F720
G1 X58.172 Y24.115 F10800
G1 Z.2 F720
G1 E1 F2100
M204 S800
;TYPE:Perimeter
;WIDTH:0.419999
G1 F1200
G1 X58.295 Y23.758 E.01181
G1 X58.509 Y23.337 E.01483
G1 X58.775 Y22.961 E.01443
G1 X59.147 Y22.573 E.01685
G1 X59.587 Y22.259 E.01694
G1 X60.132 Y21.999 E.01896
G1 X60.721 Y21.837 E.01913
G1 X61.278 Y21.787 E.01754
G1 X188.761 Y21.79 E3.99714
G1 X189.279 Y21.837 E.01631
G1 X189.868 Y21.999 E.01913
G1 X190.413 Y22.259 E.01896
G1 X190.781 Y22.52 E.01413
G1 X191.12 Y22.841 E.01464
G1 X191.374 Y23.161 E.01281
G1 X191.633 Y23.598 E.01593
G1 X191.804 Y24.024 E.0144
G1 X191.928 Y24.543 E.01673
G1 X191.963 Y25.063 E.01634
G1 X191.963 Y184.709 E5.00558
G1 X191.934 Y185.371 E.02075
G1 X191.848 Y185.827 E.01456
G1 X191.698 Y186.261 E.01438
G1 X191.451 Y186.736 E.01679
G1 X191.12 Y187.159 E.01685
G1 X190.608 Y187.61 E.0214
G1 X190.152 Y187.883 E.01664
G1 X189.726 Y188.054 E.0144
G1 X189.279 Y188.163 E.01442
G1 X188.722 Y188.213 E.01754
G1 X61.541 Y188.213 E3.98767
G1 X60.879 Y188.184 E.02076
G1 X60.423 Y188.098 E.01456
G1 X60.009 Y187.955 E.01374
G1 X59.587 Y187.741 E.01483
G1 X59.211 Y187.475 E.01444
G1 X58.823 Y187.103 E.01685
G1 X58.509 Y186.663 E.01694
G1 X58.249 Y186.118 E.01896
G1 X58.087 Y185.529 E.01913
G1 X58.037 Y184.972 E.01754
G1 X58.037 Y25.291 E5.00668
G1 X58.066 Y24.629 E.02076
M73 Q0 S208
G1 X58.153 Y24.171 E.01461
M204 S1000
G1 X57.698 Y24.489 F10800
M204 S800
;TYPE:External perimeter
G1 F1200
G1 X57.806 Y23.989 E.01606
G1 X57.985 Y23.509 E.01606
G1 X58.231 Y23.06 E.01606
G1 X58.538 Y22.65 E.01606
G1 X58.9 Y22.288 E.01605
G1 X59.31 Y21.981 E.01606
G1 X59.759 Y21.735 E.01606
G1 X60.239 Y21.556 E.01606
G1 X60.739 Y21.448 E.01606
G1 X61.265 Y21.41 E.01651
G1 X188.74 Y21.41 E3.99688
G1 X189.261 Y21.448 E.01638
G1 X189.761 Y21.556 E.01606
G1 X190.241 Y21.735 E.01606
G1 X190.69 Y21.981 E.01606
G1 X191.1 Y22.288 E.01606
G1 X191.462 Y22.65 E.01605
G1 X191.769 Y23.06 E.01606
G1 X192.015 Y23.509 E.01606
G1 X192.194 Y23.989 E.01606
G1 X192.302 Y24.489 E.01606
G1 X192.34 Y25.063 E.01803
G1 X192.34 Y184.985 E5.01424
G1 X192.302 Y185.511 E.01651
G1 X192.194 Y186.011 E.01606
G1 X192.015 Y186.491 E.01606
G1 X191.769 Y186.94 E.01605
G1 X191.462 Y187.35 E.01606
G1 X191.1 Y187.712 E.01606
G1 X190.69 Y188.019 E.01606
G1 X190.241 Y188.265 E.01605
G1 X189.761 Y188.444 E.01606
G1 X189.261 Y188.552 E.01606
G1 X188.735 Y188.59 E.01651
G1 X61.265 Y188.59 E3.99675
G1 X60.739 Y188.552 E.01652
M73 P0 R207
G1 X60.239 Y188.444 E.01606
G1 X59.759 Y188.265 E.01606
G1 X59.31 Y188.019 E.01606
G1 X58.9 Y187.712 E.01606
G1 X58.538 Y187.35 E.01606
G1 X58.231 Y186.94 E.01606
G1 X57.985 Y186.491 E.01606
G1 X57.806 Y186.011 E.01606
G1 X57.698 Y185.511 E.01606
G1 X57.66 Y184.985 E.01652
G1 X57.66 Y25.015 E5.01576
G1 X57.693 Y24.549 E.01463
M204 S1000
G1 X58.069 Y24.341 F10800
;WIPE_START
G1 F8640
G1 X57.806 Y23.989 E-.13197
G1 X57.985 Y23.509 E-.11824
G1 X58.231 Y23.06 E-.11824
G1 X58.538 Y22.65 E-.11824
G1 X58.9 Y22.288 E-.11823
G1 X59.31 Y21.981 E-.11824
G1 X59.759 Y21.735 E-.11824
G1 X60.2 Y21.571 E-.10861
;WIPE_END
G1 E-.05 F2100
G1 Z.4 F720
G1 X190.097 Y26.409 F10800
G1 Z.2 F720
G1 E1 F2100
M204 S800
;TYPE:Perimeter
G1 F1200
G1 X189.975 Y26.862 E.01472
G1 X189.791 Y27.236 E.01304
G1 X189.546 Y27.571 E.01304
G1 X189.268 Y27.839 E.01211
G1 X188.9 Y28.091 E.01396
G1 X188.52 Y28.259 E.01305
G1 X188.116 Y28.358 E.01304
G1 X187.701 Y28.386 E.01304
G1 X187.287 Y28.341 E.01304
G1 X186.888 Y28.225 E.01304
G1 X186.514 Y28.041 E.01304
G1 X186.067 Y27.684 E.01797
G1 X185.709 Y27.236 E.01799
G1 X185.491 Y26.77 E.01612
G1 X185.399 Y26.395 E.01211
G1 X185.364 Y25.951 E.01396
G1 X185.409 Y25.537 E.01305
G1 X185.525 Y25.138 E.01304
G1 X185.709 Y24.764 E.01304
G1 X185.954 Y24.429 E.01304
G1 X186.254 Y24.141 E.01304
G1 X186.6 Y23.909 E.01304
G1 X186.98 Y23.741 E.01304
G1 X187.384 Y23.642 E.01304
G1 X187.769 Y23.616 E.01211
G1 X188.213 Y23.659 E.01396
G1 X188.624 Y23.78 E.01344
G1 X188.9 Y23.909 E.00956
G1 X189.321 Y24.204 E.01612
G1 X189.609 Y24.504 E.01304
G1 X189.841 Y24.85 E.01304
G1 X190.032 Y25.317 E.01584
G1 X190.108 Y25.634 E.01022
G1 X190.136 Y26.049 E.01304
G1 X190.103 Y26.349 E.00946
M204 S1000
G1 X189.727 Y26.365 F10800
M204 S800
;TYPE:External perimeter
G1 F1200
G1 X189.633 Y26.703 E.01099
G1 X189.483 Y27.019 E.01099
G1 X189.279 Y27.305 E.01099
G1 X189.048 Y27.533 E.01019
G1 X188.741 Y27.749 E.01177
G1 X188.422 Y27.895 E.01099
G1 X188.083 Y27.982 E.01099
G1 X187.734 Y28.01 E.01099
G1 X187.385 Y27.977 E.01099
G1 X187.047 Y27.883 E.01099
G1 X186.731 Y27.733 E.01099
G1 X186.333 Y27.417 E.01591
G1 X186.017 Y27.019 E.01593
G1 X185.855 Y26.672 E.01201
G1 X185.774 Y26.357 E.01019
G1 X185.74 Y25.984 E.01177
G1 X185.773 Y25.635 E.01099
G1 X185.867 Y25.297 E.01099
G1 X186.017 Y24.981 E.01099
G1 X186.221 Y24.695 E.01099
G1 X186.471 Y24.45 E.01099
G1 X186.759 Y24.251 E.01099
G1 X187.078 Y24.105 E.01099
G1 X187.417 Y24.018 E.01099
G1 X187.741 Y23.992 E.01019
G1 X188.115 Y24.023 E.01177
G1 X188.464 Y24.122 E.01138
G1 X188.741 Y24.251 E.00956
G1 X189.062 Y24.478 E.01231
G1 X189.3 Y24.72 E.01068
G1 X189.499 Y25.009 E.01099
G1 X189.668 Y25.415 E.01378
G1 X189.76 Y25.984 E.01806
G1 X189.732 Y26.305 E.01013
M204 S1000
G1 X189.999 Y26.586 F10800
;WIPE_START
G1 F8640
G1 X189.633 Y26.703 E-.09456
G1 X189.483 Y27.019 E-.08091
G1 X189.279 Y27.305 E-.08091
G1 X189.048 Y27.533 E-.07504
G1 X188.741 Y27.749 E-.08667
G1 X188.422 Y27.895 E-.08095
G1 X188.083 Y27.982 E-.0809
G1 X187.734 Y28.01 E-.08091
G1 X187.385 Y27.977 E-.08091
G1 X187.047 Y27.883 E-.08091
G1 X186.731 Y27.733 E-.08091
G1 X186.573 Y27.608 E-.04643
;WIPE_END
G1 E-.05 F2100
G1 Z.4 F720
G1 X60.43 Y24.464 F10800
G1 Z.2 F720
G1 E1 F2100
M204 S800
;TYPE:Perimeter
G1 F1200
G1 X60.754 Y24.141 E.01437
G1 X61.1 Y23.909 E.01304
G1 X61.567 Y23.718 E.01584
G1 X61.884 Y23.642 E.01022
G1 X62.269 Y23.616 E.01211
G1 X62.713 Y23.659 E.01396
G1 X63.112 Y23.775 E.01305
G1 X63.486 Y23.959 E.01304
G1 X63.821 Y24.204 E.01304
G1 X64.109 Y24.504 E.01304
G1 X64.341 Y24.85 E.01304
G1 X64.497 Y25.203 E.01211
G1 X64.608 Y25.634 E.01396
G1 X64.636 Y26.049 E.01305
G1 X64.591 Y26.463 E.01304
G1 X64.475 Y26.862 E.01304
G1 X64.291 Y27.236 E.01304
G1 X63.933 Y27.684 E.018
G1 X63.486 Y28.041 E.01796
G1 X63.02 Y28.259 E.01612
G1 X62.616 Y28.358 E.01304
G1 X62.201 Y28.386 E.01304
G1 X61.787 Y28.341 E.01304
G1 X61.388 Y28.225 E.01304
G1 X61.014 Y28.041 E.01304
G1 X60.679 Y27.796 E.01304
G1 X60.391 Y27.496 E.01304
G1 X60.159 Y27.15 E.01304
G1 X59.991 Y26.77 E.01304
G1 X59.892 Y26.366 E.01304
G1 X59.864 Y25.951 E.01304
G1 X59.909 Y25.537 E.01304
G1 X60.03 Y25.126 E.01344
G1 X60.22 Y24.748 E.01328
G1 X60.394 Y24.512 E.00917
M204 S1000
G1 X60.728 Y24.688 F10800
M204 S800
;TYPE:External perimeter
G1 F1200
G1 X60.971 Y24.45 E.01068
G1 X61.259 Y24.251 E.01099
G1 X61.665 Y24.082 E.01378
G1 X62.21 Y23.992 E.01734
G1 X62.615 Y24.023 E.01273
G1 X62.953 Y24.117 E.01099
G1 X63.269 Y24.267 E.01099
G1 X63.555 Y24.471 E.01099
G1 X63.8 Y24.721 E.01099
G1 X63.999 Y25.009 E.01099
G1 X64.134 Y25.305 E.01019
G1 X64.232 Y25.667 E.01177
G1 X64.26 Y26.016 E.01099
G1 X64.227 Y26.365 E.01099
G1 X64.133 Y26.703 E.01099
G1 X63.983 Y27.019 E.01099
G1 X63.667 Y27.417 E.01594
G1 X63.269 Y27.733 E.0159
G1 X62.922 Y27.895 E.01201
G1 X62.583 Y27.982 E.01099
G1 X62.234 Y28.01 E.01099
G1 X61.885 Y27.977 E.01099
G1 X61.547 Y27.883 E.01099
G1 X61.231 Y27.733 E.01099
G1 X60.945 Y27.529 E.01099
G1 X60.7 Y27.28 E.01099
G1 X60.501 Y26.991 E.01099
G1 X60.355 Y26.672 E.01099
G1 X60.268 Y26.333 E.01099
G1 X60.24 Y25.984 E.01099
G1 X60.332 Y25.415 E.01806
G1 X60.529 Y24.964 E.01543
G1 X60.693 Y24.737 E.00877
M204 S1000
G1 X60.61 Y24.369 F10800
;WIPE_START
G1 F8640
G1 X60.971 Y24.45 E-.09234
G1 X61.259 Y24.251 E-.08091
G1 X61.665 Y24.082 E-.10148
G1 X62.21 Y23.992 E-.12768
G1 X62.615 Y24.023 E-.09372
G1 X62.953 Y24.117 E-.08094
G1 X63.269 Y24.267 E-.08091
G1 X63.555 Y24.471 E-.08091
G1 X63.8 Y24.721 E-.08091
G1 X63.999 Y25.009 E-.08091
G1 X64.088 Y25.203 E-.04931
;WIPE_END
G1 E-.05 F2100
G1 Z.4 F720
G1 X59.904 Y183.599 F10800
G1 Z.2 F720
G1 E1 F2100
M204 S800
;TYPE:Perimeter
G1 F1200
G1 X60.025 Y183.138 E.01494
G1 X60.209 Y182.764 E.01304
G1 X60.454 Y182.429 E.01304
G1 X60.754 Y182.141 E.01304
G1 X61.1 Y181.909 E.01304
G1 X61.48 Y181.741 E.01304
G1 X61.884 Y181.642 E.01304
G1 X62.269 Y181.616 E.01211
G1 X62.713 Y181.659 E.01396
G1 X63.112 Y181.775 E.01305
G1 X63.486 Y181.959 E.01304
G1 X63.933 Y182.316 E.01795
G1 X64.092 Y182.481 E.00721
G1 X64.341 Y182.85 E.01393
G1 X64.509 Y183.23 E.01304
G1 X64.601 Y183.605 E.01211
G1 X64.636 Y184.049 E.01396
G1 X64.591 Y184.463 E.01305
G1 X64.475 Y184.862 E.01304
G1 X64.291 Y185.236 E.01304
G1 X64.046 Y185.571 E.01304
G1 X63.768 Y185.839 E.01211
G1 X63.4 Y186.091 E.01396
G1 X63.02 Y186.259 E.01305
G1 X62.616 Y186.358 E.01304
G1 X62.201 Y186.386 E.01304
G1 X61.787 Y186.341 E.01304
G1 X61.376 Y186.22 E.01343
G1 X60.998 Y186.03 E.01328
G1 X60.672 Y185.789 E.0127
G1 X60.391 Y185.496 E.01274
G1 X60.159 Y185.15 E.01304
G1 X59.968 Y184.683 E.01584
G1 X59.865 Y184.056 E.01991
G1 X59.899 Y183.658 E.01251
M204 S1000
G1 X60.273 Y183.635 F10800
M204 S800
;TYPE:External perimeter
G1 F1200
G1 X60.367 Y183.297 E.01099
G1 X60.517 Y182.981 E.01099
G1 X60.721 Y182.695 E.01099
G1 X60.971 Y182.45 E.01099
G1 X61.259 Y182.251 E.01099
G1 X61.578 Y182.105 E.01099
G1 X61.917 Y182.018 E.01099
G1 X62.241 Y181.992 E.01019
G1 X62.615 Y182.023 E.01177
G1 X62.953 Y182.117 E.01099
G1 X63.269 Y182.267 E.01099
G1 X63.666 Y182.582 E.01589
G1 X63.795 Y182.713 E.00574
G1 X63.999 Y183.009 E.01128
G1 X64.145 Y183.328 E.01099
G1 X64.226 Y183.643 E.01019
G1 X64.26 Y184.016 E.01177
G1 X64.227 Y184.365 E.01099
G1 X64.133 Y184.703 E.01099
G1 X63.983 Y185.019 E.01099
G1 X63.779 Y185.305 E.01099
G1 X63.548 Y185.533 E.01019
G1 X63.241 Y185.749 E.01177
G1 X62.922 Y185.895 E.01099
G1 X62.583 Y185.982 E.01099
G1 X62.234 Y186.01 E.01099
G1 X61.665 Y185.918 E.01806
G1 X61.214 Y185.721 E.01543
G1 X60.938 Y185.522 E.01064
G1 X60.7 Y185.279 E.01068
G1 X60.501 Y184.991 E.01099
G1 X60.332 Y184.585 E.01378
G1 X60.24 Y184.019 E.01799
G1 X60.268 Y183.695 E.0102
M204 S1000
G1 X60.001 Y183.414 F10800
;WIPE_START
G1 F8640
G1 X60.367 Y183.297 E-.09456
G1 X60.517 Y182.981 E-.08091
G1 X60.721 Y182.695 E-.08091
G1 X60.971 Y182.45 E-.08091
G1 X61.259 Y182.251 E-.0809
G1 X61.578 Y182.105 E-.08091
G1 X61.917 Y182.018 E-.08091
G1 X62.241 Y181.992 E-.07504
G1 X62.615 Y182.023 E-.08667
G1 X62.953 Y182.117 E-.08094
G1 X63.269 Y182.267 E-.08091
G1 X63.427 Y182.392 E-.04643
;WIPE_END
G1 E-.05 F2100
G1 Z.4 F720
G1 X187.341 Y186.347 F10800
G1 Z.2 F720
G1 E1 F2100
M204 S800
;TYPE:Perimeter
G1 F1200
G1 X186.888 Y186.225 E.01472
G1 X186.514 Y186.041 E.01304
G1 X186.179 Y185.796 E.01304
G1 X185.891 Y185.496 E.01304
G1 X185.659 Y185.15 E.01304
G1 X185.491 Y184.77 E.01304
G1 X185.399 Y184.395 E.01211
G1 X185.364 Y183.951 E.01396
G1 X185.409 Y183.537 E.01305
G1 X185.525 Y183.138 E.01304
G1 X185.709 Y182.764 E.01304
G1 X186.067 Y182.316 E.018
G1 X186.212 Y182.174 E.00636
G1 X186.6 Y181.909 E.01473
G1 X186.98 Y181.741 E.01304
G1 X187.384 Y181.642 E.01304
G1 X187.769 Y181.616 E.01211
G1 X188.213 Y181.659 E.01396
G1 X188.612 Y181.775 E.01305
G1 X188.986 Y181.959 E.01304
G1 X189.321 Y182.204 E.01304
G1 X189.609 Y182.504 E.01304
G1 X189.841 Y182.85 E.01304
G1 X190.009 Y183.23 E.01304
G1 X190.101 Y183.605 E.01211
G1 X190.136 Y184.049 E.01396
G1 X190.091 Y184.463 E.01305
G1 X189.97 Y184.874 E.01344
G1 X189.78 Y185.252 E.01328
G1 X189.539 Y185.578 E.0127
G1 X189.236 Y185.862 E.01302
G1 X188.9 Y186.091 E.01273
G1 X188.433 Y186.282 E.01584
G1 X188.116 Y186.358 E.01022
G1 X187.701 Y186.386 E.01304
G1 X187.401 Y186.353 E.00946
M204 S1000
G1 X187.385 Y185.977 F10800
M204 S800
;TYPE:External perimeter
G1 F1200
G1 X187.047 Y185.883 E.01099
G1 X186.731 Y185.733 E.01099
G1 X186.445 Y185.529 E.01099
G1 X186.2 Y185.279 E.01099
G1 X186.001 Y184.991 E.01099
G1 X185.855 Y184.672 E.01099
G1 X185.774 Y184.357 E.01019
G1 X185.74 Y183.984 E.01177
G1 X185.773 Y183.635 E.01099
G1 X185.867 Y183.297 E.01099
G1 X186.017 Y182.981 E.01099
G1 X186.333 Y182.583 E.01594
G1 X186.456 Y182.461 E.00543
G1 X186.759 Y182.251 E.01155
G1 X187.078 Y182.105 E.01099
G1 X187.417 Y182.018 E.01099
G1 X187.741 Y181.992 E.01019
G1 X188.115 Y182.023 E.01177
G1 X188.453 Y182.117 E.01099
G1 X188.769 Y182.267 E.01099
G1 X189.055 Y182.471 E.01099
G1 X189.3 Y182.721 E.01099
G1 X189.499 Y183.009 E.01099
G1 X189.645 Y183.328 E.01099
G1 X189.726 Y183.643 E.01019
G1 X189.76 Y184.016 E.01177
G1 X189.668 Y184.585 E.01806
G1 X189.471 Y185.036 E.01543
G1 X189.272 Y185.312 E.01065
G1 X189.016 Y185.556 E.0111
G1 X188.741 Y185.749 E.01054
G1 X188.335 Y185.918 E.01378
G1 X187.766 Y186.01 E.01806
G1 X187.445 Y185.982 E.01013
M204 S1000
G1 X187.164 Y186.249 F10800
;WIPE_START
G1 F8640
G1 X187.047 Y185.883 E-.09456
G1 X186.731 Y185.733 E-.08091
G1 X186.445 Y185.529 E-.08091
G1 X186.2 Y185.279 E-.08091
G1 X186.001 Y184.991 E-.08091
G1 X185.855 Y184.672 E-.08091
G1 X185.774 Y184.357 E-.07505
G1 X185.74 Y183.984 E-.08666
