; generated by PrusaSlicer 2.5.0+win64 on 2022-12-05 at 21:10:34 UTC


;
;
; 

; external perimeters extrusion width = 0.60mm
; perimeters extrusion width = 0.50mm
; infill extrusion width = 0.50mm
; solid infill extrusion width = 0.50mm
; top infill extrusion width = 0.45mm
; first layer extrusion width = 0.42mm

M73 P0 R181
M73 Q0 S181
M201 X1000 Y1000 Z200 E5000 ; sets maximum accelerations, mm/sec^2
M203 X200 Y200 Z12 E120 ; sets maximum feedrates, mm / sec
M204 P1250 R1250 T1250 ; sets acceleration (P, T) and retract acceleration (R), mm/sec^2
M205 X8.00 Y8.00 Z0.40 E4.50 ; sets the jerk limits, mm/sec
M205 S0 T0 ; sets the minimum extruding and travel feed rate, mm/sec
M107
;TYPE:Custom
M862.3 P "MK3S" ; printer model check
M862.1 P0.4 ; nozzle diameter check
M115 U3.11.0 ; tell printer latest fw version
G90 ; use absolute coordinates
M83 ; extruder relative mode
M104 S230 ; set extruder temp
M140 S85 ; set bed temp
M190 S85 ; wait for bed temp
M109 S230 ; wait for extruder temp
G28 W ; home all without mesh bed level
G80 ; mesh bed leveling
G1 Z0.2 F720
G1 Y-3 F1000 ; go outside print area
G92 E0
G1 X60 E9 F1000 ; intro line
G1 X100 E12.5 F1000 ; intro line
G92 E0
M221 S95

; Don't change E values below. Excessive value can damage the printer.

M907 E538 ; set extruder motor current
G21 ; set units to millimeters
G90 ; use absolute coordinates
M83 ; use relative distances for extrusion
M900 K0.08 ; Filament gcode LA 1.5
M900 K45 ; Filament gcode LA 1.0
M107
;LAYER_CHANGE
;Z:0.2
;HEIGHT:0.2
;BEFORE_LAYER_CHANGE
G92 E0.0
;0.2


M73 P0 R180
G1 E-1 F2100
G1 Z.2 F720
;AFTER_LAYER_CHANGE
;0.2
G1 Z.4
G1 X50.851 Y32.93 F10800
G1 Z.2 F720
G1 E1 F2100
M204 S800
;TYPE:Skirt/Brim
;WIDTH:0.42
G1 F1200
G1 X51.577 Y32.004 E.0369
G1 X52.218 Y31.386 E.02792
G1 X52.93 Y30.851 E.02792
G1 X54.251 Y30.157 E.04679
G1 X55.375 Y29.807 E.0369
G1 X57 Y29.623 E.05128
G1 X193.143 Y29.627 E4.26868
G1 X194.625 Y29.807 E.0468
G1 X195.749 Y30.157 E.0369
G1 X197.07 Y30.851 E.04679
G1 X197.996 Y31.577 E.0369
G1 X198.986 Y32.694 E.04679
G1 X199.595 Y33.701 E.0369
G1 X199.945 Y34.52 E.02792
G1 X200.193 Y35.375 E.02792
G1 X200.373 Y36.856 E.04679
G1 X200.377 Y173 E4.26868
G1 X200.193 Y174.625 E.05128
G1 X199.843 Y175.749 E.0369
G1 X199.149 Y177.07 E.04679
G1 X198.423 Y177.996 E.0369
G1 X197.306 Y178.986 E.04679
G1 X196.553 Y179.462 E.02792
G1 X195.749 Y179.843 E.02792
G1 X194.625 Y180.193 E.0369
G1 X193 Y180.377 E.05128
G1 X57 Y180.377 E4.26418
G1 X55.375 Y180.193 E.05128
G1 X54.251 Y179.843 E.0369
G1 X52.93 Y179.149 E.04679
G1 X52.004 Y178.423 E.0369
G1 X51.014 Y177.306 E.04679
G1 X50.538 Y176.553 E.02792
G1 X50.157 Y175.749 E.02792
G1 X49.807 Y174.625 E.0369
G1 X49.623 Y173 E.05128
G1 X49.623 Y37 E4.26418
G1 X49.807 Y35.375 E.05128
G1 X50.157 Y34.251 E.0369
G1 X50.823 Y32.983 E.04491
M204 S1000
; printing object ElectronicsTray.stl id:0 copy 0
;WIPE_START
G1 F8640
G1 X51.577 Y32.004 E-.28538
G1 X52.218 Y31.386 E-.20561
G1 X52.93 Y30.851 E-.20562
G1 X53.902 Y30.341 E-.2534
;WIPE_END
G1 E-.05 F2100
G1 Z.4 F720
G1 X53.271 Y35.043 F10800
G1 Z.2 F720
G1 E1 F2100
M204 S800
;TYPE:Perimeter
;WIDTH:0.419999
G1 F1200
G1 X53.534 Y34.608 E.01595
G1 X53.848 Y34.207 E.01595
G1 X54.207 Y33.848 E.01595
G1 X54.608 Y33.534 E.01595
G1 X55.043 Y33.271 E.01595
G1 X55.507 Y33.062 E.01595
G1 X55.992 Y32.911 E.01595
G1 X56.492 Y32.819 E.01595
G1 X57.024 Y32.787 E.01669
G1 X193.018 Y32.79 E4.26399
G1 X193.562 Y32.829 E.01711
G1 X194.061 Y32.927 E.01593
G1 X194.544 Y33.085 E.01593
G1 X195.008 Y33.302 E.01606
G1 X195.436 Y33.568 E.01581
G1 X195.832 Y33.887 E.01593
G1 X196.186 Y34.251 E.01593
G1 X196.495 Y34.655 E.01594
G1 X196.752 Y35.093 E.01593
G1 X196.954 Y35.559 E.01593
G1 X197.099 Y36.047 E.01594
G1 X197.184 Y36.548 E.01593
G1 X197.213 Y37.051 E.01582
G1 X197.213 Y172.976 E4.26182
G1 X197.181 Y173.508 E.01669
M73 Q0 S180
G1 X197.089 Y174.008 E.01595
G1 X196.938 Y174.493 E.01593
G1 X196.725 Y174.964 E.0162
G1 X196.466 Y175.392 E.01571
G1 X196.152 Y175.793 E.01595
G1 X195.793 Y176.152 E.01595
G1 X195.392 Y176.466 E.01595
G1 X194.957 Y176.729 E.01595
G1 X194.493 Y176.938 E.01595
G1 X194.008 Y177.089 E.01595
G1 X193.508 Y177.181 E.01595
G1 X192.976 Y177.213 E.01669
G1 X57.024 Y177.213 E4.26269
G1 X56.492 Y177.181 E.01669
G1 X55.992 Y177.089 E.01595
G1 X55.507 Y176.938 E.01593
G1 X55.036 Y176.725 E.0162
G1 X54.608 Y176.466 E.01571
G1 X54.207 Y176.152 E.01595
G1 X53.848 Y175.793 E.01595
G1 X53.534 Y175.392 E.01595
G1 X53.271 Y174.957 E.01595
G1 X53.062 Y174.493 E.01595
G1 X52.911 Y174.008 E.01595
G1 X52.819 Y173.508 E.01595
G1 X52.787 Y172.976 E.01669
G1 X52.787 Y37.024 E4.26269
G1 X52.819 Y36.492 E.01669
M73 P0 R179
G1 X52.911 Y35.992 E.01595
G1 X53.062 Y35.507 E.01595
G1 X53.246 Y35.098 E.01406
M204 S1000
G1 X52.936 Y34.867 F10800
M204 S800
;TYPE:External perimeter
G1 F1200
G1 X53.223 Y34.393 E.01738
G1 X53.565 Y33.957 E.01738
G1 X53.957 Y33.565 E.01738
G1 X54.393 Y33.223 E.01738
G1 X54.867 Y32.936 E.01738
G1 X55.373 Y32.709 E.01738
G1 X55.902 Y32.544 E.01738
G1 X56.447 Y32.444 E.01738
G1 X57.012 Y32.41 E.01777
G1 X192.553 Y32.411 E4.24978
G1 X193.14 Y32.419 E.0184
G1 X193.657 Y32.463 E.01628
G1 X194.173 Y32.567 E.01649
G1 X194.698 Y32.741 E.01736
G1 X195.203 Y32.979 E.01749
G1 X195.668 Y33.271 E.01724
G1 X196.127 Y33.648 E.01861
G1 X196.483 Y34.018 E.0161
G1 X196.817 Y34.46 E.01737
G1 X197.096 Y34.938 E.01736
G1 X197.314 Y35.447 E.01736
G1 X197.47 Y35.979 E.01737
G1 X197.561 Y36.525 E.01736
G1 X197.59 Y37.051 E.01654
G1 X197.59 Y172.988 E4.26218
G1 X197.556 Y173.553 E.01777
G1 X197.456 Y174.098 E.01738
G1 X197.291 Y174.627 E.01737
G1 X197.06 Y175.139 E.01763
G1 X196.777 Y175.607 E.01713
G1 X196.435 Y176.043 E.01738
G1 X196.043 Y176.435 E.01738
G1 X195.607 Y176.777 E.01738
G1 X195.133 Y177.064 E.01738
G1 X194.627 Y177.291 E.01738
G1 X194.098 Y177.456 E.01738
G1 X193.553 Y177.556 E.01738
G1 X192.988 Y177.59 E.01777
G1 X57.012 Y177.59 E4.2634
G1 X56.447 Y177.556 E.01777
G1 X55.902 Y177.456 E.01738
G1 X55.373 Y177.291 E.01737
G1 X54.861 Y177.06 E.01763
G1 X54.393 Y176.777 E.01713
G1 X53.957 Y176.435 E.01738
G1 X53.565 Y176.043 E.01738
G1 X53.223 Y175.607 E.01738
G1 X52.936 Y175.133 E.01738
G1 X52.709 Y174.627 E.01738
G1 X52.544 Y174.098 E.01738
G1 X52.444 Y173.553 E.01738
G1 X52.41 Y172.988 E.01777
G1 X52.41 Y37.012 E4.2634
G1 X52.444 Y36.447 E.01777
G1 X52.544 Y35.902 E.01738
G1 X52.709 Y35.373 E.01738
G1 X52.912 Y34.922 E.0155
M204 S1000
G1 X53.336 Y34.851 F10800
;WIPE_START
G1 F8640
G1 X53.223 Y34.393 E-.14173
G1 X53.565 Y33.957 E-.12796
G1 X53.957 Y33.565 E-.12796
G1 X54.393 Y33.223 E-.12796
G1 X54.867 Y32.936 E-.12796
G1 X55.373 Y32.709 E-.12797
G1 X55.902 Y32.544 E-.12796
G1 X56.074 Y32.512 E-.0405
;WIPE_END
G1 E-.05 F2100
G1 Z.4 F720
G1 X194.539 Y35.204 F10800
G1 Z.2 F720
G1 E1 F2100
M204 S800
;TYPE:Perimeter
G1 F1200
G1 X194.796 Y35.429 E.01071
G1 X195.091 Y35.85 E.01612
G1 X195.259 Y36.23 E.01304
G1 X195.362 Y36.682 E.01454
G1 X195.388 Y37.02 E.01061
G1 X195.341 Y37.463 E.01397
G1 X195.225 Y37.862 E.01304
G1 X195.041 Y38.236 E.01304
G1 X194.796 Y38.571 E.01304
G1 X194.496 Y38.859 E.01304
G1 X194.15 Y39.091 E.01304
G1 X193.77 Y39.259 E.01304
G1 X193.366 Y39.358 E.01304
G1 X192.951 Y39.386 E.01304
G1 X192.537 Y39.341 E.01304
G1 X192.138 Y39.225 E.01304
G1 X191.764 Y39.041 E.01304
G1 X191.429 Y38.796 E.01304
G1 X191.164 Y38.521 E.01196
G1 X190.909 Y38.15 E.01411
G1 X190.741 Y37.77 E.01305
G1 X190.642 Y37.366 E.01304
G1 X190.614 Y36.951 E.01304
G1 X190.659 Y36.537 E.01304
G1 X190.775 Y36.138 E.01304
G1 X190.959 Y35.764 E.01304
G1 X191.204 Y35.429 E.01304
G1 X191.504 Y35.141 E.01304
G1 X191.85 Y34.909 E.01304
G1 X192.23 Y34.741 E.01304
G1 X192.634 Y34.642 E.01304
G1 X193.015 Y34.616 E.01196
G1 X193.552 Y34.683 E.01698
G1 X193.862 Y34.775 E.01014
G1 X194.348 Y35.037 E.01729
G1 X194.494 Y35.164 E.00608
M204 S1000
G1 X194.305 Y35.471 F10800
M204 S800
;TYPE:External perimeter
G1 F1200
G1 X194.654 Y35.869 E.01661
G1 X194.892 Y36.321 E.01602
G1 X194.987 Y36.715 E.01272
G1 X195.011 Y37.007 E.00917
G1 X194.977 Y37.365 E.0113
G1 X194.883 Y37.703 E.01099
G1 X194.733 Y38.019 E.01099
G1 X194.529 Y38.305 E.01099
G1 X194.28 Y38.55 E.01099
G1 X193.991 Y38.749 E.01099
G1 X193.672 Y38.895 E.01099
G1 X193.333 Y38.982 E.01099
G1 X192.984 Y39.01 E.01099
G1 X192.635 Y38.977 E.01099
G1 X192.297 Y38.883 E.01099
G1 X191.981 Y38.733 E.01099
G1 X191.695 Y38.529 E.01099
G1 X191.47 Y38.301 E.01006
G1 X191.251 Y37.991 E.01189
G1 X191.105 Y37.672 E.01099
G1 X191.018 Y37.333 E.01099
G1 X190.99 Y36.984 E.01099
G1 X191.023 Y36.635 E.01099
G1 X191.117 Y36.297 E.01099
G1 X191.267 Y35.981 E.01099
G1 X191.471 Y35.695 E.01099
G1 X191.721 Y35.45 E.01099
G1 X192.009 Y35.251 E.01099
G1 X192.328 Y35.105 E.01099
G1 X192.667 Y35.018 E.01099
G1 X192.987 Y34.992 E.01006
G1 X193.455 Y35.047 E.01476
G1 X193.987 Y35.249 E.01786
G1 X194.255 Y35.436 E.01025
M204 S1000
G1 X194.684 Y35.342 F10800
;WIPE_START
G1 F8640
G1 X194.654 Y35.869 E-.13579
G1 X194.892 Y36.321 E-.11797
G1 X194.987 Y36.715 E-.09366
G1 X195.011 Y37.007 E-.06751
G1 X194.977 Y37.365 E-.0832
G1 X194.883 Y37.703 E-.08091
G1 X194.733 Y38.019 E-.0809
G1 X194.529 Y38.305 E-.08091
G1 X194.28 Y38.55 E-.08091
G1 X193.991 Y38.749 E-.08091
G1 X193.804 Y38.834 E-.04733
;WIPE_END
G1 E-.05 F2100
G1 Z.4 F720
G1 X175.158 Y41.917 F10800
G1 Z.2 F720
G1 E1 F2100
M204 S800
;TYPE:Perimeter
G1 F1200
G1 X175.244 Y42.361 E.01417
G1 X175.22 Y42.846 E.01523
G1 X175.103 Y43.251 E.01321
G1 X174.791 Y43.821 E.02037
G1 X174.379 Y44.254 E.01873
G1 X173.991 Y44.49 E.01425
G1 X173.585 Y44.631 E.01347
G1 X173.083 Y44.695 E.01589
G1 X172.572 Y44.643 E.01611
G1 X171.992 Y44.42 E.01948
G1 X171.46 Y44.017 E.02093
G1 X171.153 Y43.612 E.01594
G1 X170.965 Y43.146 E.01575
G1 X170.883 Y42.499 E.02045
G1 X170.899 Y42.305 E.00608
G1 X171.026 Y41.818 E.01579
G1 X171.401 Y41.183 E.02312
G1 X171.804 Y40.799 E.01746
G1 X172.356 Y40.511 E.01952
G1 X172.877 Y40.4 E.01671
G1 X173.552 Y40.45 E.02121
G1 X174.095 Y40.655 E.01819
G1 X174.584 Y40.993 E.01865
G1 X174.924 Y41.395 E.0165
G1 X175.147 Y41.858 E.01612
M204 S1000
G1 X174.794 Y41.994 F10800
M204 S800
;TYPE:External perimeter
G1 F1200
G1 X174.867 Y42.352 E.01146
G1 X174.853 Y42.759 E.01278
G1 X174.733 Y43.14 E.01253
G1 X174.46 Y43.64 E.01785
G1 X174.146 Y43.957 E.01402
G1 X173.858 Y44.137 E.01063
G1 X173.523 Y44.259 E.01117
G1 X173.12 Y44.32 E.01277
G1 X172.62 Y44.269 E.01579
G1 X172.136 Y44.071 E.01637
G1 X171.698 Y43.725 E.01751
G1 X171.469 Y43.4 E.01246
G1 X171.304 Y42.958 E.0148
G1 X171.258 Y42.45 E.01598
G1 X171.391 Y41.912 E.01736
G1 X171.718 Y41.387 E.0194
G1 X172.096 Y41.054 E.01581
G1 X172.568 Y40.836 E.01628
G1 X172.994 Y40.769 E.01353
G1 X173.511 Y40.825 E.01631
G1 X173.985 Y41.023 E.01609
G1 X174.399 Y41.334 E.01624
G1 X174.65 Y41.665 E.01304
G1 X174.77 Y41.939 E.00935
M204 S1000
G1 X175.151 Y42.07 F10800
;WIPE_START
G1 F8640
G1 X174.867 Y42.352 E-.09797
G1 X174.853 Y42.759 E-.09413
G1 X174.733 Y43.14 E-.09227
G1 X174.46 Y43.64 E-.13143
G1 X174.146 Y43.957 E-.10324
G1 X173.858 Y44.137 E-.07831
G1 X173.523 Y44.259 E-.08229
G1 X173.12 Y44.32 E-.09403
G1 X172.62 Y44.269 E-.11629
G1 X172.379 Y44.17 E-.06004
;WIPE_END
G1 E-.05 F2100
G1 Z.4 F720
G1 X146.153 Y44.452 F10800
G1 Z.2 F720
G1 E1 F2100
M204 S800
;TYPE:Perimeter
G1 F1200
G1 X146.1 Y44.486 E.00196
G1 X145.686 Y44.631 E.01377
G1 X145.183 Y44.695 E.01589
G1 X144.667 Y44.642 E.01626
G1 X144.092 Y44.42 E.01934
G1 X143.56 Y44.017 E.02093
G1 X143.249 Y43.604 E.0162
G1 X143.056 Y43.12 E.01635
G1 X142.983 Y42.499 E.01961
G1 X142.999 Y42.305 E.00609
G1 X143.126 Y41.818 E.01579
G1 X143.501 Y41.183 E.02312
G1 X143.904 Y40.799 E.01746
G1 X144.528 Y40.483 E.02191
G1 X145.056 Y40.392 E.01681
G1 X145.652 Y40.45 E.01878
G1 X146.195 Y40.655 E.01819
G1 X146.684 Y40.993 E.01865
G1 X147.024 Y41.395 E.01651
G1 X147.247 Y41.859 E.01614
G1 X147.344 Y42.361 E.01603
G1 X147.32 Y42.846 E.01523
G1 X147.203 Y43.251 E.01321
G1 X146.891 Y43.821 E.02037
G1 X146.524 Y44.214 E.01685
G1 X146.203 Y44.42 E.01197
M204 S1000
G1 X145.958 Y44.137 F10800
M204 S800
;TYPE:External perimeter
G1 F1200
G1 X145.623 Y44.259 E.01117
G1 X145.22 Y44.32 E.01277
G1 X144.718 Y44.268 E.01585
G1 X144.236 Y44.072 E.01632
G1 X143.798 Y43.725 E.01751
G1 X143.569 Y43.4 E.01246
G1 X143.404 Y42.958 E.0148
G1 X143.358 Y42.45 E.01598
G1 X143.491 Y41.912 E.01736
G1 X143.818 Y41.387 E.0194
G1 X144.196 Y41.054 E.01581
G1 X144.643 Y40.842 E.01549
G1 X145.094 Y40.769 E.01434
G1 X145.611 Y40.825 E.01631
G1 X146.085 Y41.023 E.01609
G1 X146.499 Y41.334 E.01624
G1 X146.75 Y41.665 E.01304
G1 X146.894 Y41.994 E.01123
G1 X146.967 Y42.352 E.01146
G1 X146.953 Y42.759 E.01278
G1 X146.872 Y43.07 E.01007
G1 X146.56 Y43.64 E.02037
G1 X146.23 Y43.969 E.01461
G1 X146.009 Y44.105 E.00816
M204 S1000
G1 X145.937 Y44.493 F10800
;WIPE_START
G1 F8640
G1 X145.623 Y44.259 E-.0959
G1 X145.22 Y44.32 E-.09404
G1 X144.718 Y44.268 E-.11671
G1 X144.236 Y44.072 E-.12016
G1 X143.798 Y43.725 E-.12896
G1 X143.569 Y43.4 E-.09177
G1 X143.404 Y42.958 E-.109
G1 X143.358 Y42.45 E-.11768
G1 X143.437 Y42.131 E-.07577
;WIPE_END
G1 E-.05 F2100
G1 Z.4 F720
G1 X142.158 Y94.017 F10800
G1 Z.2 F720
G1 E1 F2100
M204 S800
;TYPE:Perimeter
G1 F1200
G1 X142.244 Y94.461 E.01417
G1 X142.22 Y94.946 E.01523
G1 X142.103 Y95.351 E.01321
G1 X141.779 Y95.941 E.02111
G1 X141.424 Y96.314 E.01613
G1 X141.001 Y96.586 E.01578
G1 X140.585 Y96.731 E.0138
G1 X140.083 Y96.795 E.01589
G1 X139.57 Y96.743 E.01617
G1 X138.992 Y96.52 E.01942
G1 X138.46 Y96.117 E.02093
G1 X138.154 Y95.713 E.01588
G1 X137.965 Y95.246 E.01581
G1 X137.883 Y94.599 E.02045
G1 X137.899 Y94.405 E.00608
G1 X138.026 Y93.918 E.01579
G1 X138.4 Y93.283 E.02312
G1 X138.804 Y92.899 E.01746
G1 X139.356 Y92.611 E.01952
G1 X139.877 Y92.5 E.01671
G1 X140.552 Y92.55 E.02121
G1 X141.095 Y92.755 E.01819
G1 X141.584 Y93.093 E.01865
G1 X141.924 Y93.495 E.0165
G1 X142.147 Y93.958 E.01612
M204 S1000
G1 X141.794 Y94.094 F10800
M204 S800
;TYPE:External perimeter
G1 F1200
G1 X141.867 Y94.452 E.01146
G1 X141.853 Y94.859 E.01278
G1 X141.772 Y95.17 E.01007
G1 X141.46 Y95.74 E.02037
G1 X141.13 Y96.069 E.01461
G1 X140.858 Y96.237 E.01004
G1 X140.523 Y96.359 E.01118
G1 X140.12 Y96.42 E.01277
G1 X139.623 Y96.369 E.01568
G1 X139.136 Y96.171 E.01648
G1 X138.698 Y95.825 E.01751
G1 X138.469 Y95.5 E.01246
G1 X138.304 Y95.058 E.0148
G1 X138.259 Y94.559 E.01571
G1 X138.391 Y94.012 E.01762
G1 X138.717 Y93.487 E.0194
G1 X139.094 Y93.155 E.01573
G1 X139.548 Y92.941 E.01576
G1 X139.994 Y92.869 E.01416
G1 X140.511 Y92.925 E.01631
G1 X140.974 Y93.116 E.0157
G1 X141.38 Y93.413 E.01577
G1 X141.65 Y93.765 E.01392
G1 X141.77 Y94.039 E.00935
M204 S1000
G1 X142.151 Y94.169 F10800
;WIPE_START
G1 F8640
G1 X141.867 Y94.452 E-.09797
G1 X141.853 Y94.859 E-.09413
G1 X141.772 Y95.17 E-.07415
G1 X141.46 Y95.74 E-.15001
G1 X141.13 Y96.069 E-.10759
G1 X140.858 Y96.237 E-.07391
G1 X140.523 Y96.359 E-.0823
G1 X140.12 Y96.42 E-.09402
G1 X139.623 Y96.369 E-.11551
G1 X139.38 Y96.271 E-.06042
;WIPE_END
G1 E-.05 F2100
G1 Z.4 F720
G1 X188.351 Y95.252 F10800
G1 Z.2 F720
G1 E1 F2100
M204 S800
;TYPE:Perimeter
G1 F1200
G1 X188.291 Y95.29 E.00223
G1 X187.885 Y95.431 E.01347
G1 X187.383 Y95.495 E.01589
G1 X186.867 Y95.442 E.01624
G1 X186.292 Y95.22 E.01935
G1 X185.76 Y94.817 E.02093
G1 X185.453 Y94.411 E.01596
G1 X185.265 Y93.946 E.01573
G1 X185.192 Y93.389 E.01762
G1 X185.199 Y93.105 E.00889
G1 X185.326 Y92.618 E.01579
G1 X185.397 Y92.453 E.00563
G1 X185.7 Y91.983 E.01755
G1 X186.104 Y91.599 E.01746
G1 X186.656 Y91.311 E.01952
G1 X187.177 Y91.2 E.01671
G1 X187.852 Y91.25 E.02121
G1 X188.395 Y91.455 E.01819
M73 Q0 S179
G1 X188.884 Y91.793 E.01865
G1 X189.224 Y92.195 E.0165
G1 X189.462 Y92.713 E.01788
G1 X189.544 Y93.161 E.01428
G1 X189.52 Y93.646 E.01523
G1 X189.403 Y94.051 E.01322
G1 X189.091 Y94.621 E.02037
G1 X188.724 Y95.014 E.01685
G1 X188.401 Y95.219 E.012
M204 S1000
G1 X188.158 Y94.937 F10800
M204 S800
;TYPE:External perimeter
G1 F1200
G1 X187.823 Y95.059 E.01118
G1 X187.42 Y95.12 E.01277
G1 X186.919 Y95.068 E.01581
G1 X186.436 Y94.871 E.01635
G1 X185.998 Y94.525 E.01751
